X:3227
T:Klockarpolskan, motstämma
R:Polska
Z:Anton Teljebäck 
%%MIDI ratio 24 16
M:3/4
L:1/4
K:Dm
|: AGF | E3 | D C B, | A,G,A, | AGF | E3 | AGF | E D z :|
|: AAA | GGG | FFF | EEE | CCC | CCE | AGA | E D z :|
(:musicend:)

(:music:)
